X: 18813
T: Iggy And Squiggy
R: reel
M: 4/4
K: Dmajor
fgfe d2fd|B2dB BAFA|fgfe d2fd|ABde fec2|
fgfe d2fd|B2dB BAFA|fgfe dedc|1 BABc d2d2:|2 BABc defg||
|:ad d/d/d adbd|ad d/d/d agfg|ad d/d/d adba|fede fece|
ad d/d/d adbd|ad d/d/d g2fe|fgfe dedc|1 BABc defg:|2 BABc d2d2||

